X:1028
T:Hut On Staffin Island, The
R:reel
C:Phil Cunningham, Scotland
Z:id:hn-reel-1028
M:C|
L:1/8
K:D
A,B,DE D3E | FEFA d2cd | B3d BAFD | E2FE DB,~B,2 |
A,B,DE D3E | FEFA d2cd | B3d BAFD |1 E2FE D3B, :|2 E2FE D2FA ||
|: d3c d2ed | cBcd c2BA | ~B3A BcdB | AFEF DB,~B,2 |
[1 d3c d2ed | cBcd c2BA | ~B3A BcdB | AFEF D2FA :|
[2 A,B,DE D3E | FEFA d2cd | B3d BAFD | E2FE D3B, || 

